X:21
T:Cobiquid Pass
R:jig
C:Paul S. Cranford
O:Cape Breton Island
S:http://www.cranfordpub.com
D:currently unrecorded
B:currently unpublished in book form
Z:psc
H:                                                        copyrights Cranford Publications, SOCAN
L:1/8
Q:300
M:6/8
K:Bb
F|DFB dcB|cdc B2 F|GBG FDB,|ECC C2 E|
DFB dcB|cdc B2 F|GBG FBB,|CDC B,2:|
|:f|b2 B dfb|gfe dcB|GBG FBd|[1cFA Bdf|
b2 B dfb|gfe dcB|GBG FDB,|CDC B,2:|
[2cFA BFD|B,FD EGc|Aec Bdf|gbg fdB|cdc B2|]
